lib/healthicons/icons/solid/typography/0.svg

<svg fill="none" height="48" viewBox="0 0 48 48" width="48" xmlns="http://www.w3.org/2000/svg"><path clip-rule="evenodd" d="m22 14c-2.2091 0-4 1.7909-4 4v11.3808l9.2495-15.1823c-.3928-.1289-.8126-.1985-1.2495-.1985zm7.9607 3.4363-9.8144 16.1097c.5543.2905 1.1845.454 1.8537.454h4c2.2091 0 4-1.7909 4-4v-12c0-.1914-.0134-.3795-.0393-.5637zm-15.9607.5637c0-4.4183 3.5817-8 8-8h4c2.0477 0 3.9198.7719 5.3338 2.0375 1.6335 1.462 2.6662 3.593 2.6662 5.9625v12c0 4.4183-3.5817 8-8 8h-4c-2.3695 0-4.5005-1.0327-5.9625-2.6662-1.2656-1.414-2.0375-3.2861-2.0375-5.3338z" fill="#333" fill-rule="evenodd"/></svg>

<svg width="48" height="48" viewBox="0 0 48 48" fill="none" xmlns="http://www.w3.org/2000/svg">
<path fill-rule="evenodd" clip-rule="evenodd" d="M22 14C19.7909 14 18 15.7909 18 18V29.3808L27.2495 14.1985C26.8567 14.0696 26.4369 14 26 14H22ZM29.9607 17.4363L20.1463 33.546C20.7006 33.8365 21.3308 34 22 34H26C28.2091 34 30 32.2091 30 30V18C30 17.8086 29.9866 17.6205 29.9607 17.4363ZM14 18C14 13.5817 17.5817 10 22 10H26C28.0477 10 29.9198 10.7719 31.3338 12.0375C32.9673 13.4995 34 15.6305 34 18V30C34 34.4183 30.4183 38 26 38H22C19.6305 38 17.4995 36.9673 16.0375 35.3338C14.7719 33.9198 14 32.0477 14 30V18Z" fill="#333333"/>
</svg>
